X: 1
T: Biddy From Limerick
M: 9/8
L: 1/8
R: slip jig
K: Dmaj
|: F3 A2F def | F2D A2F GFE | F2D A2F def | g3 e2d cBA :|
|: ABA d3 def | ABA d2A GFE | ABA d2A def | g2f e2d cBA :|
